communes/418.svg

<?xml version="1.0" encoding="UTF-8" standalone="no"?>
<svg
   xmlns:dc="http://purl.org/dc/elements/1.1/"
   xmlns:cc="http://web.resource.org/cc/"
   xmlns:rdf="http://www.w3.org/1999/02/22-rdf-syntax-ns#"
   xmlns:svg="http://www.w3.org/2000/svg"
   xmlns="http://www.w3.org/2000/svg"
   xmlns:xlink="http://www.w3.org/1999/xlink"
   xmlns:sodipodi="http://sodipodi.sourceforge.net/DTD/sodipodi-0.dtd"
   xmlns:inkscape="http://www.inkscape.org/namespaces/inkscape"
   height="763"
   width="603"
   version="1.0"
   id="svg20"
   sodipodi:version="0.32"
   inkscape:version="0.44.1"
   sodipodi:docname="Oberburg-coat of arms.svg"
   sodipodi:docbase="F:\Mis Documentos\Mis imágenes\Encyclopédie\Escudos de Suiza">
  <metadata
     id="metadata31">
    <rdf:RDF>
      <cc:Work
         rdf:about="">
        <dc:format>image/svg+xml</dc:format>
        <dc:type
           rdf:resource="http://purl.org/dc/dcmitype/StillImage" />
        <dc:date>07-AUG-2006</dc:date>
        <dc:creator>
          <cc:Agent>
            <dc:title>Jérôme BLUM (wagner51)</dc:title>
          </cc:Agent>
        </dc:creator>
        <cc:license
           rdf:resource="http://creativecommons.org/licenses/GPL/2.0/" />
        <dc:coverage />
        <dc:description>Gabarit pour le Projet:Blasons de WIkipédia</dc:description>
        <dc:subject>
          <rdf:Bag>
            <rdf:li>blason suisse modèle gabarit projet blasons</rdf:li>
          </rdf:Bag>
        </dc:subject>
        <dc:language>fr</dc:language>
        <dc:title>Gabrit d'un blason suisse</dc:title>
      </cc:Work>
      <cc:License
         rdf:about="http://creativecommons.org/licenses/GPL/2.0/">
        <cc:permits
           rdf:resource="http://web.resource.org/cc/Reproduction" />
        <cc:permits
           rdf:resource="http://web.resource.org/cc/Distribution" />
        <cc:requires
           rdf:resource="http://web.resource.org/cc/Notice" />
        <cc:permits
           rdf:resource="http://web.resource.org/cc/DerivativeWorks" />
        <cc:requires
           rdf:resource="http://web.resource.org/cc/ShareAlike" />
        <cc:requires
           rdf:resource="http://web.resource.org/cc/SourceCode" />
      </cc:License>
    </rdf:RDF>
  </metadata>
  <defs
     id="defs29">
    <linearGradient
       id="linearGradient2893">
      <stop
         style="stop-color:#ffffff;stop-opacity:0.3137255;"
         offset="0"
         id="stop2895" />
      <stop
         id="stop2897"
         offset="0.19"
         style="stop-color:#ffffff;stop-opacity:0.25098041;" />
      <stop
         style="stop-color:#6b6b6b;stop-opacity:0.1254902;"
         offset="0.60000002"
         id="stop2901" />
      <stop
         style="stop-color:#000000;stop-opacity:0.1254902;"
         offset="1"
         id="stop2899" />
    </linearGradient>
    <linearGradient
       id="linearGradient2955">
      <stop
         style="stop-color:white;stop-opacity:0;"
         offset="0"
         id="stop2965" />
      <stop
         style="stop-color:black;stop-opacity:0.64583331;"
         offset="1"
         id="stop2959" />
    </linearGradient>
    <radialGradient
       inkscape:collect="always"
       xlink:href="#linearGradient2893"
       id="radialGradient3236"
       gradientUnits="userSpaceOnUse"
       gradientTransform="matrix(1.215027,1.531577e-24,1.464684e-23,1.266667,-839.1924,-490.4894)"
       cx="858.04236"
       cy="579.93323"
       fx="858.04236"
       fy="579.93323"
       r="300" />
  </defs>
  <sodipodi:namedview
     inkscape:window-height="682"
     inkscape:window-width="1024"
     inkscape:pageshadow="2"
     inkscape:pageopacity="0.0"
     guidetolerance="10.0"
     gridtolerance="10.0"
     objecttolerance="10.0"
     borderopacity="1.0"
     bordercolor="#666666"
     pagecolor="#ffffff"
     id="base"
     inkscape:zoom="0.53913662"
     inkscape:cx="137.85605"
     inkscape:cy="400.13641"
     inkscape:window-x="-4"
     inkscape:window-y="-4"
     inkscape:current-layer="layer2"
     showgrid="true"
     showguides="true"
     inkscape:guide-bbox="true" />
  <desc
     id="desc22">Coat of Arms of Canton of Freiburg (Fribourg)</desc>
  <g
     inkscape:groupmode="layer"
     id="layer1"
     inkscape:label="Fond écu"
     sodipodi:insensitive="true">
    <path
       id="path1899"
       d="M 1.5,1.49998 L 1.5,460.3679 C 1.5,626.6785 135.81456,761.5 301.49999,761.5 C 467.18543,761.5 601.5,626.6785 601.5,460.3679 L 601.5,1.49998 L 1.5,1.49998 z "
       style="fill:black;fill-opacity:1" />
  </g>
  <g
     inkscape:groupmode="layer"
     id="layer2"
     inkscape:label="Meubles"
     sodipodi:insensitive="true">
    <g
       id="g17351"
       transform="matrix(4.032258,0,0,4.032258,-2508.468,-2326.534)">
      <path
         sodipodi:nodetypes="ccccccccccccccccccc"
         id="path13759"
         d="M 678.91716,674.81657 L 678.91716,603 L 684.10059,603 L 684.10052,583 L 674.68042,583 L 674.68042,593 L 665.20905,593 L 665.26031,583 L 655.84021,583 L 655.73767,593 L 646.2663,593 L 646.4201,583 L 637,583 L 637,603 L 642.46745,603 L 678.91716,603 L 642.46745,603 L 642.46745,674.81657 L 678.91716,674.81657 z "
         style="fill:white;fill-opacity:1;fill-rule:evenodd;stroke:black;stroke-width:1px;stroke-linecap:butt;stroke-linejoin:miter;stroke-opacity:1" />
      <path
         sodipodi:nodetypes="ccccccccc"
         id="path7552"
         d="M 751.39052,675.1545 L 751.39052,615.1545 L 740,615 L 740,625 L 735,625 L 735,615 L 725,615 L 725,675 L 751.39052,675.1545 z "
         style="fill:white;fill-opacity:1;fill-rule:evenodd;stroke:black;stroke-width:1px;stroke-linecap:butt;stroke-linejoin:miter;stroke-opacity:1" />
      <path
         sodipodi:nodetypes="ccccccccccc"
         id="path10213"
         d="M 687,673 L 694.76705,672.92543 L 695.56501,653.81559 L 687.01486,639.82344 L 687,662.37615 L 687,655 L 670,626 L 653,655 L 658,655 L 658,673 L 687,673 z "
         style="fill:white;fill-opacity:1;fill-rule:evenodd;stroke:black;stroke-width:1px;stroke-linecap:butt;stroke-linejoin:miter;stroke-opacity:1" />
      <path
         sodipodi:nodetypes="ccccccccccccccccccccccccccccccc"
         id="path6665"
         d="M 758,693 L 758,663 L 745.77251,663 L 745.77251,673 L 737,673 L 737,653 L 725,653 L 725,663 L 720,663 L 720,653 L 710,653 L 710,663 L 705,663 L 705,653 L 695,653 L 695,673 L 687,673 L 687,663 L 687,663 L 675,663 L 675,673 L 665,673 L 665,663 L 655,663 L 655,673 L 645,673 L 645,663 L 635,663 L 635,698 L 758,698 L 758,693 z "
         style="fill:white;fill-opacity:1;fill-rule:evenodd;stroke:black;stroke-width:1px;stroke-linecap:butt;stroke-linejoin:miter;stroke-opacity:1" />
      <path
         sodipodi:nodetypes="cccc"
         id="path8439"
         d="M 738.19526,586.76398 L 720.69526,615 L 755.69526,615 L 738.19526,586.76398 z "
         style="fill:#e20909;fill-opacity:1;fill-rule:evenodd;stroke:black;stroke-width:1px;stroke-linecap:butt;stroke-linejoin:miter;stroke-opacity:1" />
      <path
         sodipodi:nodetypes="ccccc"
         id="path9326"
         d="M 732.21895,640.38199 L 740,653 L 695,653 L 687.16304,640.38199 L 732.21895,640.38199 z "
         style="fill:#e20909;fill-opacity:1;fill-rule:evenodd;stroke:black;stroke-width:1px;stroke-linecap:butt;stroke-linejoin:miter;stroke-opacity:1" />
      <rect
         y="643.51855"
         x="668.51855"
         height="9.9629278"
         width="3.9629035"
         id="rect11100"
         style="opacity:1;fill:black;fill-opacity:1;fill-rule:nonzero;stroke:black;stroke-width:1.0370785;stroke-miterlimit:4;stroke-dasharray:none;stroke-opacity:1" />
      <path
         sodipodi:nodetypes="cccccc"
         id="path12872"
         d="M 670,626 L 706,626 L 716,640.48118 L 687,640.48118 L 687,655 L 670,626 z "
         style="fill:#e20909;fill-opacity:1;fill-rule:evenodd;stroke:black;stroke-width:1px;stroke-linecap:butt;stroke-linejoin:miter;stroke-opacity:1" />
      <rect
         y="609.46295"
         x="658.49554"
         height="11.074119"
         width="4.1041055"
         id="rect14646"
         style="opacity:1;fill:black;fill-opacity:1;fill-rule:nonzero;stroke:black;stroke-width:0.92590195;stroke-miterlimit:4;stroke-dasharray:none;stroke-opacity:1" />
      <path
         sodipodi:nodetypes="cccccssc"
         id="path14648"
         d="M 706,698 L 715.5,698 L 715.38552,674.21547 L 715.5,698 L 725,698 L 725,682 C 725,671.61914 706,671.11412 706,682 L 706,698 z "
         style="fill:white;fill-opacity:1;fill-rule:evenodd;stroke:black;stroke-width:1px;stroke-linecap:butt;stroke-linejoin:miter;stroke-opacity:1" />
    </g>
    <path
       style="fill:#5ab532;fill-opacity:1;fill-rule:evenodd;stroke:black;stroke-width:4.07850552;stroke-linecap:butt;stroke-linejoin:miter;stroke-miterlimit:4;stroke-dasharray:none;stroke-opacity:1"
       d="M 301.6875,491.68708 C 248.73897,491.86062 196.02081,516.42186 195.53125,564.87458 C 198.34457,632.14252 255.94637,710.22769 301.6875,760.49958 C 256.15049,710.53821 197.93694,632.16033 195.53125,564.87458 C 144.67776,521.69079 58.881583,532.29171 25.281253,578.06208 C 67.098383,676.82404 159.93306,748.54262 270.59375,759.90583 C 270.66722,759.91337 270.73902,759.92959 270.8125,759.93708 C 295.57676,761.71062 320.61208,761.1771 345.65625,758.24958 C 451.28897,742.60781 538.99757,671.71292 578.6875,575.74958 C 547.24782,530.67929 466.03181,522.09155 409.15625,564.87458 C 407.80677,515.72768 354.63603,491.51354 301.6875,491.68708 z M 409.03125,565.12458 C 405.87833,647.64335 345.62914,709.4157 301.6875,760.49958 C 345.67863,709.20505 405.68059,647.6819 409.03125,565.12458 z "
       id="path9020"
       sodipodi:nodetypes="cccccscccccccc" />
  </g>
  <g
     inkscape:groupmode="layer"
     id="layer3"
     inkscape:label="Reflet final"
     style="display:inline"
     sodipodi:insensitive="true">
    <path
       style="fill:url(#radialGradient3236);fill-opacity:1"
       d="M 1.5,1.5 L 1.5,460.3679 C 1.5,626.67854 135.81454,761.5 301.49993,761.5 C 467.1854,761.5 601.5,626.67854 601.5,460.3679 L 601.5,1.5 L 1.5,1.5 z "
       id="path2346" />
  </g>
  <g
     inkscape:groupmode="layer"
     id="layer4"
     inkscape:label="Contour final"
     style="display:inline"
     sodipodi:insensitive="true">
    <path
       style="fill:none;fill-opacity:1;stroke:#000000;stroke-width:3;stroke-miterlimit:4;stroke-dasharray:none;stroke-opacity:1"
       d="M 1.5,1.5 L 1.5,460.36794 C 1.5,626.67854 135.81454,761.5 301.49993,761.5 C 467.1854,761.5 601.5,626.67854 601.5,460.36794 L 601.5,1.5 L 1.5,1.5 z "
       id="path3239" />
  </g>
</svg>

<?xml version="1.0" encoding="UTF-8"?>
<svg version="1.0" viewBox="0 0 603 763" xmlns="http://www.w3.org/2000/svg" xmlns:cc="http://web.resource.org/cc/" xmlns:dc="http://purl.org/dc/elements/1.1/" xmlns:rdf="http://www.w3.org/1999/02/22-rdf-syntax-ns#" xmlns:xlink="http://www.w3.org/1999/xlink">
<metadata>
<rdf:RDF>
<cc:Work rdf:about="">
<dc:format>image/svg+xml</dc:format>
<dc:type rdf:resource="http://purl.org/dc/dcmitype/StillImage"/>
<dc:date>07-AUG-2006</dc:date>
<dc:creator>
<cc:Agent>
<dc:title>Jérôme BLUM (wagner51)</dc:title>
</cc:Agent>
</dc:creator>
<cc:license rdf:resource="http://creativecommons.org/licenses/GPL/2.0/"/>
<dc:coverage/>
<dc:description>Gabarit pour le Projet:Blasons de WIkipédia</dc:description>
<dc:subject>
<rdf:Bag>
<rdf:li>blason suisse modèle gabarit projet blasons</rdf:li>
</rdf:Bag>
</dc:subject>
<dc:language>fr</dc:language>
<dc:title>Gabrit d'un blason suisse</dc:title>
</cc:Work>
<cc:License rdf:about="http://creativecommons.org/licenses/GPL/2.0/">
<cc:permits rdf:resource="http://web.resource.org/cc/Reproduction"/>
<cc:permits rdf:resource="http://web.resource.org/cc/Distribution"/>
<cc:requires rdf:resource="http://web.resource.org/cc/Notice"/>
<cc:permits rdf:resource="http://web.resource.org/cc/DerivativeWorks"/>
<cc:requires rdf:resource="http://web.resource.org/cc/ShareAlike"/>
<cc:requires rdf:resource="http://web.resource.org/cc/SourceCode"/>
</cc:License>
</rdf:RDF>
</metadata>
<defs>
<radialGradient id="a" cx="858.04" cy="579.93" r="300" gradientTransform="matrix(1.215 1.5316e-24 1.4647e-23 1.2667 -839.19 -490.49)" gradientUnits="userSpaceOnUse">
<stop stop-color="#fff" stop-opacity=".31373" offset="0"/>
<stop stop-color="#fff" stop-opacity=".25098" offset=".19"/>
<stop stop-color="#6b6b6b" stop-opacity=".12549" offset=".6"/>
<stop stop-opacity=".12549" offset="1"/>
</radialGradient>
</defs>
<desc>Coat of Arms of Canton of Freiburg (Fribourg)</desc>
<path d="m1.5 1.5v458.87c0 166.31 134.31 301.13 300 301.13 165.69 0 300-134.82 300-301.13v-458.87h-600z"/>
<g stroke="#000">
<g transform="matrix(4.0323 0 0 4.0323 -2508.5 -2326.5)">
<path d="m678.92 674.82v-71.817h5.1834l-7e-5 -20h-9.4201v10h-9.4714l0.05126-10h-9.4201l-0.10254 10h-9.4714l0.1538-10h-9.4201v20h5.4674 36.45-36.45v71.817h36.45z" fill="#fff" fill-rule="evenodd" stroke-width="1px"/>
<path d="m751.39 675.15v-60l-11.391-0.1545v10h-5v-10h-10v60l26.391 0.1545z" fill="#fff" fill-rule="evenodd" stroke-width="1px"/>
<path d="m687 673 7.767-0.07457 0.79796-19.11-8.5502-13.992-0.01486 22.553v-7.3762l-17-29-17 29h5v18h29z" fill="#fff" fill-rule="evenodd" stroke-width="1px"/>
<path d="m758 693v-30h-12.227v10h-8.7725v-20h-12v10h-5v-10h-10v10h-5v-10h-10v20h-8v-10h-12v10h-10v-10h-10v10h-10v-10h-10v35h123v-5z" fill="#fff" fill-rule="evenodd" stroke-width="1px"/>
<path d="m738.2 586.76-17.5 28.236h35l-17.5-28.236z" fill="#e20909" fill-rule="evenodd" stroke-width="1px"/>
<path d="m732.22 640.38 7.781 12.618h-45l-7.837-12.618h45.056z" fill="#e20909" fill-rule="evenodd" stroke-width="1px"/>
<rect x="668.52" y="643.52" width="3.9629" height="9.9629" stroke-width="1.0371"/>
<path d="m670 626h36l10 14.481h-29v14.519l-17-29z" fill="#e20909" fill-rule="evenodd" stroke-width="1px"/>
<rect x="658.5" y="609.46" width="4.1041" height="11.074" stroke-width=".9259"/>
<path d="m706 698h9.5l-0.11448-23.785 0.11448 23.785h9.5v-16c0-10.381-19-10.886-19 0v16z" fill="#fff" fill-rule="evenodd" stroke-width="1px"/>
</g>
<path d="m301.69 491.69c-52.949 0.17354-105.67 24.735-106.16 73.188 2.8133 67.268 60.415 145.35 106.16 195.62-45.537-49.961-103.75-128.34-106.16-195.62-50.853-43.184-136.65-32.583-170.25 13.188 41.817 98.762 134.65 170.48 245.31 181.84 0.07347 0.00754 0.14527 0.02376 0.21875 0.03125 24.764 1.7735 49.8 1.24 74.844-1.6875 105.63-15.642 193.34-86.537 233.03-182.5-31.44-45.07-112.66-53.658-169.53-10.875-1.3495-49.147-54.52-73.361-107.47-73.188zm107.34 73.438c-3.1529 82.519-63.402 144.29-107.34 195.38 43.991-51.295 103.99-112.82 107.34-195.38z" fill="#5ab532" fill-rule="evenodd" stroke-width="4.0785"/>
</g>
<g>
<path d="m1.5 1.5v458.87c0 166.31 134.31 301.13 300 301.13 165.69 0 300-134.82 300-301.13v-458.87h-600z" fill="url(#a)"/>
<path d="m1.5 1.5v458.87c0 166.31 134.31 301.13 300 301.13 165.69 0 300-134.82 300-301.13v-458.87h-600z" fill="none" stroke="#000" stroke-width="3"/>
</g>
</svg>
